src/components/class-icon/images/Paladin.svg

<?xml version="1.0" encoding="UTF-8"?>
<svg width="66px" height="100px" viewBox="0 0 66 100" version="1.1" xmlns="http://www.w3.org/2000/svg" xmlns:xlink="http://www.w3.org/1999/xlink">
    <!-- Generator: Sketch 53.2 (72643) - https://sketchapp.com -->
    <title>ClassIcon/Paladin</title>
    <desc>Created with Sketch.</desc>
    <g id="ClassIcon/Paladin" stroke="none" stroke-width="1" fill="none" fill-rule="evenodd">
        <g transform="translate(0.000000, 0.000000)" fill="#00040C" fill-rule="nonzero" id="Paladin">
            <path d="M11.7326733,4.11881188 C12.029703,2.76237624 12.049505,1.35643564 12.3267327,0 C12.3861386,1.86138614 12.5940594,3.72277228 12.5346535,5.57425743 C12.3144842,7.50959765 11.8964566,9.417263 11.2871287,11.2673267 C10.6138614,13.4059406 9.37623762,15.4158416 9.35643564,17.7029703 C9.19825094,18.7020843 9.17826158,19.71821 9.2970297,20.7227723 C9.74257426,23.6138614 10.3861386,26.4752475 11.049505,29.3168317 C12.3861386,31.0594059 13.9108911,32.6732673 15.3267327,34.3663366 C16.6732673,35.2970297 18.4059406,35.1584158 19.950495,34.950495 C20.4950495,34.5148515 20.8613861,33.8910891 21.3564356,33.4158416 C22.039604,33.990099 22.6732673,34.6336634 23.3366337,35.2178218 C24.0689301,34.0116533 24.8966593,32.8660762 25.8118812,31.7920792 C27.2673267,30.2871287 28.7128713,28.7524752 30.1683168,27.2475248 C30.7054341,26.7705438 31.1168786,26.1686788 31.3663366,25.4950495 C31.894823,24.5098945 32.3068366,23.4665697 32.5940594,22.3861386 L32.8217822,22.3861386 C33.0090026,23.2429685 33.3226678,24.0671739 33.7524752,24.8316832 C33.9987682,25.5435773 34.3563396,26.2119351 34.8118812,26.8118812 C36.5643564,28.6138614 38.2871287,30.4356436 40.029703,32.2475248 C40.7821782,33.1584158 41.3366337,34.2277228 42.009901,35.1683168 C42.6831683,34.6138614 43.2871287,33.990099 43.990099,33.4257426 C44.6732673,34 45.0594059,35.2079208 46.1386139,35.029703 C47.6732673,35.2277228 49.6237624,35.1584158 50.5742574,33.7425743 C51.4851485,32.6732673 52.4752475,31.5445545 53.3861386,30.4455446 C53.8984963,30.0124835 54.2706713,29.4369906 54.4554455,28.7920792 C55.009901,25.8217822 55.8217822,22.9405941 56.1386139,19.950495 C56.1386139,18.6435644 55.970297,17.3366337 55.8118812,16.039604 C54.950495,13.2178218 53.4455446,10.5841584 53.1584158,7.6039604 C52.4752475,5.10891089 52.9405941,2.54455446 53.039604,0 C53.2871287,1.35643564 53.3168317,2.75247525 53.6138614,4.10891089 C54.1683168,5.32673267 54.8910891,6.45544554 55.4950495,7.65346535 C56.1881188,9.37623762 58.1782178,9.97029703 59.2772277,11.3564356 C59.9306931,12.7227723 60.4950495,14.1188119 61.1386139,15.4851485 C61.3214292,15.9973783 61.3214292,16.5570771 61.1386139,17.0693069 C60.6237624,19.5742574 60.1485149,22.0891089 59.6336634,24.6039604 C59.5049806,25.1174735 59.5049806,25.6548037 59.6336634,26.1683168 C60.6237624,23.5247525 61.049505,20.6732673 61.8514851,17.960396 C62.3366337,20.5346535 63.3663366,22.980198 64.0792079,25.4950495 C64.3179064,26.0360072 64.4133772,26.6292898 64.3564356,27.2178218 C63.7326733,30.8316832 62.5841584,38.6831683 62.5148515,39.0990099 C63.4455446,37.5742574 64.1980198,35.960396 65.1485149,34.4653465 C65.039604,37.2376238 64.7920792,40.009901 64.6138614,42.7821782 C63.7920792,45.4257426 61.9009901,47.5148515 60.3069307,49.7128713 C61.4356436,49.1089109 62.5049505,48.3960396 63.6138614,47.7326733 C63.2970297,49.2277228 62.8910891,50.7029703 62.5544554,52.1980198 C62.4752475,52.4851485 62.4356436,52.8316832 62.1485149,52.980198 C60.3861386,53.970297 58.5643564,54.8415842 56.8217822,55.8712871 C58.4257426,55.7227723 59.990099,55.3564356 61.5940594,55.1881188 C60.8019802,56.5049505 59.8910891,57.7326733 59.0693069,59.029703 C58.8811881,59.2673267 58.7425743,59.6336634 58.3861386,59.6336634 C56.9306931,59.7227723 55.4158416,59.7326733 54,59.8415842 C55.0487647,60.3834941 56.1378108,60.8436077 57.2574257,61.2178218 C55.7128713,62.0594059 54.1089109,62.7920792 52.5346535,63.5643564 C51.5445545,62.4851485 50.6435644,61.3366337 49.6732673,60.2475248 C49.1881188,59.7821782 49.4653465,59.0693069 49.4653465,58.4851485 C49.4653465,56.6138614 50.019802,54.6930693 49.4653465,52.8514851 C49.1683168,51.5742574 48.8910891,50.2970297 48.5940594,49.019802 C47.3796739,49.1162501 46.2231263,49.5788692 45.2772277,50.3465347 C45.5940594,55.9207921 45.960396,61.4950495 46.2673267,67.0693069 C46.1782178,67.8613861 46.7821782,68.4653465 47.1287129,69.1089109 C47.6138614,70.019802 48.7524752,70.1485149 49.4554455,70.8118812 C49.950495,71.3069307 50.7029703,71.1980198 51.3465347,71.2970297 C52.4950495,71.4950495 53.5445545,70.8415842 54.6534653,70.6435644 C52.970297,72.2376238 51.0693069,73.6138614 49.3960396,75.2178218 C47.1089109,78.6534653 44.8712871,82.1485149 42.5940594,85.5841584 C40.9108911,87.9405941 39.960396,90.7029703 38.6336634,93.2673267 C37.8362722,95.1334572 37.1680322,97.0521662 36.6336634,99.009901 C36.4554455,92.0792079 36.3762376,85.2079208 36.2277228,78.3069307 C36.2277228,75.7821782 35.7425743,73.2673267 36.009901,70.7425743 C36.6435644,68.4653465 36.6831683,66.039604 37.5742574,63.8118812 C39.5294622,61.1707836 41.2051155,58.3337863 42.5742574,55.3465347 C41.3564356,55.3960396 40.1485149,55.5247525 38.9306931,55.5940594 C38.2178218,55.5940594 37.7425743,56.1881188 37.1881188,56.5841584 C36.0891089,57.4356436 34.9009901,58.1980198 33.8415842,59.0990099 C33.3267327,60.0891089 33.2079208,61.2574257 32.7326733,62.2772277 C32.0792079,61.2871287 32.1386139,59.960396 31.4554455,58.990099 C29.980198,57.9009901 28.4851485,56.7623762 27.009901,55.7425743 C25.6336634,55.4950495 24.2178218,55.4851485 22.8217822,55.3762376 C23.936721,57.8976208 25.3210027,60.2910672 26.950495,62.5148515 C28.9306931,64.8415842 28.6138614,68.0891089 29.4554455,70.8613861 C29.5628374,72.5930328 29.4964996,74.3310822 29.2574257,76.049505 C29.0990099,83.7128713 29,91.3762376 28.8118812,99.039604 C28.1782178,97.4158416 27.8217822,95.6732673 27.1089109,94.0891089 C25.6435644,91.2178218 24.5841584,88.1485149 22.6930693,85.4653465 L16.8415842,76.5544554 C16.5200952,75.9900698 16.1383235,75.462229 15.7029703,74.980198 C14.0693069,73.5544554 12.3564356,72.2178218 10.7524752,70.7425743 C11.8613861,70.9405941 12.9108911,71.5940594 14.0594059,71.3960396 C14.7029703,71.2970297 15.4554455,71.3960396 15.950495,70.9108911 C16.6633663,70.2475248 17.7920792,70.1188119 18.2772277,69.2079208 C18.6123654,68.7351187 18.8883466,68.2230573 19.0990099,67.6831683 C19.4059406,61.950495 19.8118812,56.2178218 20.0891089,50.4752475 C19.1042722,49.7046461 17.9184649,49.2337603 16.6732673,49.1188119 C16.2970297,50.8217822 15.8613861,52.5148515 15.5445545,54.2277228 C15.5445545,56.039604 15.7821782,57.8514851 15.8712871,59.6633663 C15.8712871,60.019802 15.6435644,60.2772277 15.4356436,60.5247525 C14.5148515,61.5148515 13.6534653,62.6435644 12.7227723,63.6633663 C11.1485149,62.8910891 9.54455446,62.1584158 8,61.3168317 C9.11961497,60.9426176 10.208661,60.482504 11.2574257,59.9405941 C9.8019802,59.8316832 8.28712871,59.8217822 6.87128713,59.7326733 C6.51485149,59.7326733 6.37623762,59.3663366 6.18811881,59.1287129 C5.36633663,57.8316832 4.45544554,56.6039604 3.66336634,55.2871287 C5.26732673,55.4554455 6.83168317,55.8217822 8.43564356,55.970297 C6.69306931,54.980198 4.87128713,54.0693069 3.10891089,53.0792079 C2.82178218,52.9306931 2.78217822,52.5841584 2.7029703,52.2970297 C2.36633663,50.8019802 1.96039604,49.3267327 1.64356436,47.8316832 C2.75247525,48.4455446 3.82178218,49.1584158 4.95049505,49.8118812 C3.80793627,48.3809638 2.74685105,46.8868501 1.77227723,45.3366337 C1.35643564,44.3465347 0.594059406,43.5148515 0.594059406,42.3663366 C0.465346535,39.7524752 0.198019802,37.1386139 0.108910891,34.5148515 C1.0990099,36.009901 1.81188119,37.6237624 2.74257426,39.1485149 C2.67326733,38.7425743 1.44554455,30.6930693 0.871287129,26.960396 C1.53465347,23.9405941 2.85148515,21.0792079 3.45544554,18.049505 C4.25742574,20.7623762 4.69306931,23.6138614 5.67326733,26.2574257 C5.79892898,25.8057611 5.81589311,25.3307655 5.72277228,24.8712871 C5.14851485,22.049505 4.6039604,19.2376238 4.03960396,16.4257426 C3.9958956,15.9409877 4.11807617,15.4557563 4.38613861,15.049505 C4.95049505,13.8613861 5.43564356,12.6336634 6.00990099,11.4455446 C7.10891089,10.0594059 9.0990099,9.46534653 9.79207921,7.74257426 C10.3960396,6.54455446 11.1188119,5.41584158 11.6732673,4.1980198"></path>
        </g>
    </g>
</svg>

<svg viewBox="0 0 66 100" xmlns="http://www.w3.org/2000/svg"><path d="M11.733 4.119c.297-1.357.317-2.763.594-4.119.06 1.861.267 3.723.208 5.574a28.495 28.495 0 0 1-1.248 5.693c-.673 2.139-1.91 4.149-1.93 6.436a11.03 11.03 0 0 0-.06 3.02c.446 2.89 1.09 5.752 1.753 8.594 1.336 1.742 2.86 3.356 4.277 5.05 1.346.93 3.079.791 4.623.583.545-.435.911-1.059 1.406-1.534.684.574 1.317 1.218 1.98 1.802a26.426 26.426 0 0 1 2.476-3.426c1.455-1.505 2.9-3.04 4.356-4.544a4.376 4.376 0 0 0 1.198-1.753c.529-.985.94-2.028 1.228-3.109h.228c.187.857.5 1.681.93 2.446.247.712.604 1.38 1.06 1.98 1.752 1.802 3.475 3.624 5.218 5.436.752.91 1.307 1.98 1.98 2.92.673-.554 1.277-1.178 1.98-1.742.683.574 1.07 1.782 2.149 1.604 1.534.198 3.485.128 4.435-1.287.911-1.07 1.901-2.198 2.812-3.297a3.386 3.386 0 0 0 1.07-1.654c.554-2.97 1.366-5.851 1.683-8.842 0-1.306-.169-2.613-.327-3.91-.862-2.822-2.366-5.456-2.654-8.436-.683-2.495-.217-5.06-.118-7.604.247 1.356.277 2.752.574 4.109.554 1.218 1.277 2.346 1.881 3.544.693 1.723 2.683 2.317 3.782 3.703.654 1.367 1.218 2.763 1.862 4.13a2.356 2.356 0 0 1 0 1.583c-.515 2.505-.99 5.02-1.505 7.535a3.218 3.218 0 0 0 0 1.564c.99-2.643 1.416-5.495 2.217-8.208.486 2.575 1.515 5.02 2.228 7.535.239.541.334 1.134.277 1.723-.623 3.614-1.772 11.465-1.841 11.881.93-1.525 1.683-3.139 2.634-4.634-.11 2.773-.357 5.545-.535 8.317-.822 2.644-2.713 4.733-4.307 6.93 1.129-.603 2.198-1.316 3.307-1.98-.317 1.496-.723 2.971-1.06 4.466-.079.287-.118.634-.405.782-1.763.99-3.585 1.862-5.327 2.891 1.604-.148 3.168-.515 4.772-.683-.792 1.317-1.703 2.545-2.525 3.842-.188.237-.326.604-.683.604-1.455.089-2.97.099-4.386.208a22.93 22.93 0 0 0 3.257 1.376c-1.544.841-3.148 1.574-4.722 2.346-.99-1.079-1.891-2.227-2.862-3.316-.485-.466-.208-1.179-.208-1.763 0-1.871.555-3.792 0-5.634-.297-1.277-.574-2.554-.87-3.831a6.02 6.02 0 0 0-3.318 1.327c.317 5.574.683 11.148.99 16.722-.089.792.515 1.396.862 2.04.485.91 1.623 1.04 2.326 1.703.495.495 1.248.386 1.892.485 1.148.198 2.198-.455 3.306-.653-1.683 1.594-3.584 2.97-5.257 4.574-2.287 3.435-4.525 6.93-6.802 10.366-1.683 2.357-2.634 5.119-3.96 7.683a44.307 44.307 0 0 0-2 5.743c-.179-6.93-.258-13.802-.406-20.703 0-2.525-.485-5.04-.218-7.564.634-2.278.673-4.703 1.564-6.931a47.465 47.465 0 0 0 5-8.465c-1.218.049-2.425.178-3.643.247-.713 0-1.188.594-1.743.99-1.099.852-2.287 1.614-3.346 2.515-.515.99-.634 2.158-1.11 3.178-.653-.99-.593-2.317-1.277-3.287-1.475-1.089-2.97-2.228-4.445-3.247-1.376-.248-2.792-.258-4.188-.367a38.248 38.248 0 0 0 4.128 7.139c1.98 2.327 1.664 5.574 2.505 8.346a25.98 25.98 0 0 1-.198 5.189c-.158 7.663-.257 15.326-.445 22.99-.634-1.624-.99-3.367-1.703-4.95-1.465-2.872-2.525-5.941-4.416-8.625l-5.851-8.91a8.98 8.98 0 0 0-1.139-1.575c-1.634-1.426-3.347-2.762-4.95-4.237 1.108.198 2.158.851 3.306.653.644-.099 1.396 0 1.891-.485.713-.663 1.842-.792 2.327-1.703.335-.473.611-.985.822-1.525.307-5.733.713-11.465.99-17.208a6.515 6.515 0 0 0-3.416-1.356c-.376 1.703-.812 3.396-1.128 5.109 0 1.812.237 3.623.326 5.435 0 .357-.227.614-.435.862-.921.99-1.783 2.119-2.713 3.138-1.574-.772-3.178-1.505-4.723-2.346a22.93 22.93 0 0 0 3.257-1.376c-1.455-.11-2.97-.12-4.386-.208-.356 0-.495-.367-.683-.604-.822-1.297-1.733-2.525-2.525-3.842 1.604.168 3.169.535 4.773.683-1.743-.99-3.565-1.9-5.327-2.89-.287-.15-.327-.496-.406-.783-.337-1.495-.743-2.97-1.06-4.465 1.11.614 2.179 1.326 3.307 1.98a48.782 48.782 0 0 1-3.178-4.475c-.416-.99-1.178-1.822-1.178-2.97-.129-2.615-.396-5.228-.485-7.852.99 1.495 1.703 3.109 2.634 4.634-.07-.406-1.297-8.456-1.872-12.189.664-3.02 1.98-5.88 2.584-8.91.802 2.712 1.238 5.564 2.218 8.207a2.97 2.97 0 0 0 .05-1.386c-.574-2.821-1.119-5.633-1.683-8.445-.044-.485.078-.97.346-1.376.564-1.189 1.05-2.416 1.624-3.604 1.099-1.387 3.089-1.98 3.782-3.703.604-1.198 1.327-2.327 1.881-3.545" fill="#00040C" fill-rule="nonzero"/></svg>
